lib/preview/nrk-logo-preview-nrk-tegnspraak-with-bg.svg

<svg width="130" height="24" viewBox="0 0 130 24" fill="none" xmlns="http://www.w3.org/2000/svg">
<rect width="130" height="24" fill="#1767CE"/>
<path d="M6.00425 18V6.00109H9.94144V18H6.00425ZM15.2981 7.91078L17.5623 18H13.2534L10.5497 6.00109H12.9664C13.5206 5.9939 14.0583 6.18925 14.4788 6.55039C14.8999 6.89638 15.1892 7.3767 15.2981 7.91078ZM18.1538 18V6.00109H22.091V18H18.1538ZM25.0647 10.5641C24.6405 10.5682 24.223 10.4572 23.8568 10.243C23.4955 10.0341 23.1953 9.73396 22.9865 9.3726C22.772 9.00633 22.661 8.58876 22.6652 8.16432C22.6604 7.74246 22.7715 7.32738 22.9865 6.96443C23.1976 6.60699 23.4974 6.31009 23.8568 6.10252C24.2231 5.8885 24.6405 5.77751 25.0647 5.78138C25.4865 5.77684 25.9014 5.88793 26.2645 6.10252C26.6203 6.31191 26.9169 6.60856 27.1263 6.96443C27.3411 7.32748 27.4522 7.74249 27.4476 8.16432C27.4515 8.58873 27.3405 9.00623 27.1263 9.3726C26.9191 9.73238 26.6222 10.0323 26.2645 10.243C25.9013 10.458 25.4861 10.5691 25.0642 10.5641H25.0647ZM28.0559 18V6.00109H31.9934V18H28.0559ZM36.978 12.5582C36.9891 12.5699 37.0735 12.7079 37.2314 12.9723C37.3893 13.2367 37.5949 13.5747 37.8482 13.9863C38.1017 14.3977 38.3691 14.8343 38.6506 15.296C38.932 15.7577 39.1969 16.1944 39.4451 16.6058C39.6923 17.0172 39.974 17.4819 40.29 18H35.9641C35.6935 17.5606 35.4484 17.1635 35.2287 16.8086C35.0091 16.4537 34.7755 16.0706 34.5281 15.6594C34.2801 15.2485 34.0348 14.8485 33.7925 14.4595C33.5501 14.0704 33.3418 13.7296 33.1675 13.4371C32.9925 13.1443 32.8713 12.9471 32.8039 12.8455C32.6368 12.5934 32.5379 12.3023 32.5169 12.0005C32.5337 11.7109 32.6269 11.431 32.787 11.1891C32.8546 11.0764 32.9785 10.8764 33.1588 10.5891C33.339 10.3018 33.5503 9.96105 33.7925 9.56672C34.0347 9.17239 34.2799 8.7696 34.5281 8.35837C34.7763 7.94715 35.0098 7.56124 35.2287 7.20071C35.4488 6.84055 35.6939 6.44059 35.9641 6.00081H40.29L36.9439 11.4595C36.8403 11.6216 36.782 11.8083 36.7749 12.0005C36.786 12.2023 36.8565 12.3963 36.9774 12.5582H36.978Z" fill="white"/>
<path d="M44.1276 7.48598H47.9989V18.0011H49.774V7.48598H53.6287V5.9983H44.1276V7.48598Z" fill="#D9E9FF"/>
<path d="M60.485 10.4698C60.1605 10.0492 59.7323 9.72004 59.2424 9.51463C58.6981 9.29246 58.1144 9.18318 57.5265 9.19342C56.9344 9.18336 56.3467 9.29858 55.8022 9.53153C55.3069 9.7484 54.8653 10.0716 54.5089 10.4782C54.1417 10.9054 53.8655 11.403 53.6972 11.9405C53.5045 12.5558 53.4105 13.1977 53.4185 13.8424C53.3946 14.657 53.5655 15.4655 53.917 16.2007C54.2383 16.8378 54.7573 17.3538 55.3962 17.6715C56.146 18.0246 56.9686 18.1955 57.797 18.1702C58.1955 18.1736 58.5937 18.1482 58.9886 18.0941C59.3186 18.0466 59.6439 17.9702 59.9606 17.8659C60.2748 17.7605 60.5801 17.6305 60.8738 17.477L60.9921 16.1753C60.7778 16.2542 60.5608 16.3331 60.341 16.412C60.1212 16.4909 59.893 16.5613 59.6563 16.6233C59.4176 16.6859 59.1747 16.7311 58.9294 16.7586C58.6826 16.7867 58.4343 16.8008 58.1858 16.8008C57.7419 16.808 57.2989 16.7597 56.8669 16.6571C56.5185 16.5739 56.1962 16.4055 55.929 16.1669C55.6587 15.9097 55.4606 15.5862 55.3542 15.2286C55.2437 14.8665 55.1817 14.4913 55.1699 14.1129H61.2792C61.3624 13.4137 61.331 12.7057 61.1863 12.0166C61.0674 11.4563 60.8281 10.9284 60.485 10.4698ZM56.2248 10.8755C56.6214 10.6347 57.0794 10.5143 57.5432 10.5289C58.0075 10.5057 58.4661 10.6397 58.8449 10.9093C59.1816 11.1779 59.422 11.5488 59.5295 11.9659C59.6138 12.2743 59.6554 12.5929 59.653 12.9126H55.2068C55.2384 12.5755 55.3105 12.2435 55.4215 11.9236C55.5659 11.495 55.8484 11.1263 56.2248 10.8755Z" fill="#D9E9FF"/>
<path d="M68.8106 9.41318C68.5523 9.34249 68.2897 9.28886 68.0245 9.2526C67.7218 9.2119 67.4167 9.19213 67.1113 9.19342C66.5598 9.19116 66.0135 9.30042 65.5053 9.51463C64.996 9.73021 64.5337 10.0432 64.1444 10.436C63.7294 10.8595 63.4096 11.3667 63.2062 11.9236C62.9703 12.5764 62.8557 13.2668 62.8681 13.9607C62.8496 14.7242 62.9965 15.4825 63.2989 16.1838C63.5639 16.7835 64.0027 17.2899 64.5586 17.6376C65.1668 17.9964 65.8643 18.1752 66.57 18.1533C67.1901 18.151 67.804 18.0305 68.3789 17.7982C68.7225 17.6583 69.0464 17.4743 69.3425 17.2508V17.7137C69.3495 18.0946 69.2953 18.4741 69.1822 18.8379C69.0846 19.1431 68.9167 19.421 68.6919 19.6494C68.4497 19.882 68.1533 20.0505 67.8295 20.1396C67.4084 20.2553 66.9728 20.3094 66.5362 20.3002C66.1889 20.2997 65.8419 20.28 65.4968 20.2411C65.1344 20.2001 64.7755 20.1323 64.4231 20.0382C64.0602 19.9415 63.7043 19.8201 63.358 19.6747L63.544 21.1624C63.8549 21.2885 64.1741 21.3931 64.4994 21.4752C64.8415 21.5615 65.1887 21.6265 65.5388 21.6696C65.909 21.7151 66.2816 21.7377 66.6546 21.7372C67.4866 21.7633 68.3136 21.5984 69.072 21.2554C69.6879 20.9686 70.2033 20.5033 70.5512 19.9199C70.8918 19.3202 71.0641 18.6398 71.0502 17.9504V9.19342L69.3966 9.61888C69.2058 9.53807 69.01 9.46936 68.8106 9.41318ZM69.123 16.1838C68.9136 16.3055 68.6962 16.4128 68.4722 16.505C68.2749 16.586 68.0714 16.6511 67.8636 16.6994C67.6612 16.7452 67.4543 16.7679 67.2468 16.767C66.739 16.7854 66.2351 16.6718 65.7842 16.4374C65.3914 16.2131 65.0873 15.8611 64.9224 15.4399C64.7186 14.8916 64.6238 14.3087 64.6434 13.7241C64.6358 13.2575 64.7013 12.7926 64.8375 12.3463C64.9483 11.9795 65.1389 11.6417 65.3957 11.3573C65.6457 11.0929 65.9517 10.8878 66.2914 10.7572C66.6773 10.6109 67.0875 10.5392 67.5001 10.5458C67.7665 10.5456 68.0324 10.5683 68.295 10.6135C68.5638 10.6609 68.8292 10.7259 69.0895 10.8079C69.1723 10.8338 69.2586 10.8682 69.3431 10.8997V16.0536C69.2687 16.0981 69.1929 16.1438 69.123 16.1838Z" fill="#D9E9FF"/>
<path d="M80.2975 9.54844C79.7952 9.29476 79.2368 9.17261 78.6746 9.19342C78.1839 9.19438 77.6963 9.27137 77.2291 9.42164C76.7478 9.57499 76.2898 9.79401 75.8683 10.0725C75.7051 10.1798 75.5482 10.2979 75.3949 10.4191V9.21033L73.6706 9.46391V18.0011H75.3949V11.5805C75.5618 11.4827 75.734 11.3941 75.9105 11.315C76.148 11.2099 76.3906 11.1168 76.6375 11.0361C76.8749 10.9585 77.1179 10.8992 77.3644 10.8586C77.5963 10.82 77.8309 10.8002 78.066 10.7994C78.3418 10.793 78.6166 10.836 78.8774 10.9262C79.0926 11.0037 79.2845 11.1346 79.4353 11.3066C79.5905 11.4931 79.7005 11.7129 79.7565 11.949C79.8285 12.2478 79.8626 12.5545 79.8579 12.8619V18.0011H81.5823V12.5069C81.6048 11.866 81.4954 11.2273 81.2611 10.6304C81.0701 10.172 80.7308 9.79097 80.2975 9.54844Z" fill="#D9E9FF"/>
<path d="M89.4768 14.1129C89.3037 13.9295 89.1043 13.7728 88.8851 13.648C88.6582 13.518 88.4205 13.4078 88.1748 13.3183C87.9945 13.262 87.817 13.2028 87.6423 13.1408C87.4676 13.0788 87.2929 13.0225 87.1182 12.9718C86.9435 12.921 86.7745 12.8675 86.611 12.8112C86.4578 12.759 86.3082 12.6969 86.1631 12.6252C86.0241 12.5514 85.8912 12.4666 85.7658 12.3716C85.65 12.2843 85.5524 12.1752 85.4787 12.0504C85.404 11.9222 85.366 11.7761 85.3685 11.6278C85.364 11.4648 85.4051 11.3038 85.4871 11.1629C85.5754 11.0245 85.6976 10.911 85.8421 10.8332C86.019 10.7361 86.2101 10.6676 86.4085 10.6304C86.6563 10.5828 86.9084 10.5602 87.1608 10.5627C87.2845 10.5627 87.4197 10.5687 87.5665 10.5796C87.7133 10.5906 87.8733 10.6109 88.0483 10.6388C88.2233 10.6667 88.3974 10.7039 88.5721 10.7487C88.7467 10.7935 88.9243 10.8445 89.1049 10.9009C89.272 10.9522 89.4357 11.0143 89.5948 11.0868L89.7135 9.71748C89.4991 9.62731 89.2878 9.54843 89.0795 9.48081C88.8713 9.41334 88.6597 9.3569 88.4455 9.31175C88.2364 9.26744 88.0247 9.2364 87.8116 9.21878C87.6029 9.20188 87.3972 9.19341 87.1946 9.19341C86.7276 9.18864 86.2618 9.2426 85.8083 9.35402C85.4204 9.44822 85.0516 9.60833 84.7179 9.82737C84.4153 10.0275 84.1682 10.3008 83.9994 10.6219C83.8227 10.9758 83.7357 11.3676 83.7459 11.763C83.7407 12.0478 83.7866 12.3312 83.8814 12.5998C83.9615 12.8253 84.0818 13.0343 84.2364 13.2169C84.3867 13.3894 84.5602 13.5401 84.752 13.6649C84.9517 13.7959 85.1641 13.9063 85.386 13.9945C85.5097 14.0396 85.6394 14.0847 85.7748 14.1298C85.9102 14.1749 86.0427 14.2171 86.1721 14.2566C86.3014 14.2963 86.4282 14.3355 86.5522 14.3749C86.6761 14.4144 86.7973 14.4538 86.9156 14.4932C87.034 14.5327 87.1495 14.5693 87.2625 14.6031C87.4136 14.6567 87.5604 14.7217 87.7017 14.7975C87.8258 14.8632 87.9422 14.9426 88.0486 15.0342C88.1421 15.1159 88.2169 15.2168 88.268 15.33C88.3199 15.4471 88.3459 15.5739 88.3444 15.702C88.3504 15.827 88.3285 15.9519 88.2802 16.0674C88.2319 16.1829 88.1584 16.2862 88.0652 16.3697C87.8559 16.5446 87.6059 16.6638 87.3383 16.7163C87.0247 16.7855 86.7045 16.8195 86.3834 16.8177C86.1826 16.8163 85.9822 16.8022 85.7832 16.7755C85.5635 16.7477 85.3324 16.7082 85.0901 16.6571C84.8478 16.606 84.5998 16.5441 84.346 16.4712C84.0926 16.3981 83.8363 16.3164 83.5771 16.226L83.6447 17.663C83.9374 17.7644 84.205 17.8461 84.4477 17.9081C84.6904 17.9701 84.9214 18.0236 85.1408 18.0687C85.3526 18.1126 85.5673 18.1409 85.7832 18.1532C85.9916 18.1645 86.2029 18.1701 86.4172 18.1701C86.8886 18.1726 87.3589 18.1244 87.8201 18.0265C88.226 17.9439 88.6148 17.7924 88.9696 17.5785C89.2894 17.3833 89.5542 17.1098 89.7391 16.7839C89.9326 16.4262 90.0287 16.024 90.0178 15.6174C90.0248 15.3208 89.9761 15.0255 89.8741 14.7468C89.7833 14.5121 89.6484 14.2969 89.4768 14.1129Z" fill="#D9E9FF"/>
<path d="M98.5634 9.72593C97.9567 9.35444 97.2542 9.16927 96.5432 9.19341C96.1212 9.19547 95.7011 9.24941 95.2922 9.35401C94.8503 9.46631 94.4243 9.63387 94.0243 9.85273C93.9449 9.89583 93.8663 9.94373 93.7877 9.99219V9.21032L92.0633 9.48081V21.5512H93.7877V17.7664C93.7992 17.7712 93.8099 17.7765 93.8215 17.7813C94.1338 17.9111 94.4599 18.0047 94.7935 18.0603C95.1874 18.1252 95.5861 18.1563 95.9853 18.1532C96.7465 18.1663 97.497 17.9736 98.1577 17.5954C98.8064 17.2108 99.3337 16.6513 99.6791 15.9809C100.078 15.1817 100.273 14.2958 100.245 13.4028C100.261 12.6478 100.114 11.8983 99.8147 11.2052C99.55 10.6011 99.1152 10.0871 98.5634 9.72593ZM98.1154 15.3808C97.9123 15.8298 97.572 16.2027 97.1433 16.4458C96.6669 16.6953 96.1341 16.8176 95.5965 16.8008C95.339 16.8009 95.0818 16.7812 94.8273 16.7416C94.5603 16.699 94.2973 16.634 94.0412 16.5472C93.9601 16.5191 93.8722 16.4869 93.7877 16.4559V11.1209C93.8102 11.1105 93.833 11.0969 93.8553 11.0868C94.1029 10.9741 94.3339 10.8783 94.5484 10.7994C94.7512 10.7237 94.9606 10.6671 95.1739 10.6304C95.3638 10.5977 95.556 10.5807 95.7487 10.5796C96.2698 10.5624 96.787 10.6757 97.2532 10.9093C97.6609 11.1313 97.9801 11.4863 98.1577 11.9152C98.3727 12.4638 98.4735 13.0506 98.4538 13.6395C98.4717 14.2378 98.3561 14.8327 98.1154 15.3808Z" fill="#D9E9FF"/>
<path d="M105.874 9.31964C105.558 9.40437 105.256 9.5354 104.979 9.70847C104.69 9.88844 104.423 10.1012 104.184 10.3424C104.144 10.3821 104.105 10.4269 104.066 10.4689V9.20975L102.341 9.46334V18.0005H104.066V11.6137C104.194 11.5242 104.327 11.4413 104.463 11.3652C104.632 11.2721 104.807 11.1902 104.987 11.1201C105.162 11.0524 105.339 10.9933 105.52 10.9426C105.705 10.8909 105.894 10.8542 106.086 10.8327C106.291 10.8099 106.497 10.8042 106.703 10.8158L106.906 9.22666C106.559 9.20176 106.211 9.23317 105.874 9.31964Z" fill="#D9E9FF"/>
<path d="M115.798 16.9361C115.675 16.9474 115.55 16.9287 115.435 16.8816C115.321 16.8345 115.219 16.7604 115.139 16.6656C114.982 16.3947 114.917 16.0805 114.953 15.7696L114.987 12.2871C114.99 11.922 114.945 11.5581 114.851 11.2052C114.769 10.8956 114.632 10.6035 114.446 10.343C114.258 10.0881 114.019 9.87514 113.744 9.71747C113.425 9.53639 113.08 9.40526 112.721 9.32865C112.283 9.23387 111.835 9.18852 111.386 9.19341C111.03 9.19326 110.674 9.21584 110.321 9.26103C109.987 9.30303 109.657 9.36799 109.332 9.45544C109.031 9.53716 108.734 9.63593 108.444 9.75128L108.241 11.1882C108.523 11.0868 108.791 11.0023 109.044 10.9347C109.298 10.867 109.543 10.8107 109.78 10.7656C110.012 10.7213 110.246 10.6903 110.481 10.6726C110.712 10.6557 110.94 10.6473 111.166 10.6473C111.511 10.64 111.855 10.6798 112.189 10.7656C112.432 10.8266 112.656 10.9488 112.84 11.1206C113.003 11.2878 113.119 11.4947 113.178 11.7208C113.25 11.9995 113.284 12.2866 113.279 12.5745L113.277 12.9988L111.301 13.1324C110.625 13.1511 109.96 13.3004 109.34 13.5719C108.877 13.7746 108.477 14.0988 108.182 14.5101C107.932 14.8762 107.8 15.3095 107.802 15.7527C107.799 16.1685 107.9 16.5784 108.098 16.9445C108.305 17.3206 108.616 17.6288 108.994 17.832C109.455 18.0719 109.97 18.1884 110.49 18.1701C110.977 18.1813 111.461 18.1011 111.918 17.9335C112.314 17.7787 112.675 17.5491 112.983 17.2573C113.1 17.1451 113.211 17.0269 113.316 16.9031C113.349 17.0781 113.411 17.2464 113.499 17.401C113.65 17.6598 113.881 17.8617 114.158 17.9757C114.464 18.0987 114.792 18.159 115.122 18.1532C115.223 18.1532 115.322 18.1504 115.418 18.1448C115.512 18.1391 115.605 18.125 115.697 18.1025C115.787 18.0797 115.868 18.0603 115.942 18.0434C116.008 18.0286 116.073 18.0088 116.136 17.9842L116.322 16.8515C116.229 16.8836 116.133 16.9062 116.035 16.9192C115.956 16.9296 115.877 16.9353 115.798 16.9361ZM112.983 16.1753C112.8 16.3203 112.602 16.445 112.392 16.5472C112.183 16.6488 111.961 16.7227 111.733 16.767C111.496 16.8126 111.255 16.8353 111.014 16.8346C110.738 16.8425 110.464 16.7906 110.211 16.6825C110.005 16.5929 109.831 16.4425 109.712 16.2514C109.595 16.0488 109.537 15.8176 109.543 15.5836C109.527 15.3018 109.604 15.0225 109.763 14.7891C109.947 14.5743 110.196 14.4258 110.473 14.3664C110.905 14.2647 111.348 14.2192 111.792 14.2312H113.272L113.264 15.9091C113.179 16.0057 113.084 16.0948 112.983 16.1753Z" fill="#D9E9FF"/>
<path d="M110.397 7.84099C110.716 7.99208 111.066 8.06728 111.42 8.06075C111.782 8.06786 112.141 7.98969 112.468 7.83253C112.762 7.68927 113.011 7.46684 113.186 7.19013C113.367 6.89251 113.458 6.54916 113.448 6.20117C113.459 5.94875 113.415 5.697 113.318 5.46343C113.222 5.22987 113.076 5.02011 112.89 4.84875C112.494 4.50172 111.98 4.32015 111.453 4.34157C111.101 4.33759 110.752 4.40967 110.431 4.55289C110.129 4.68733 109.873 4.90783 109.695 5.18684C109.507 5.49711 109.413 5.85538 109.425 6.21807C109.413 6.56899 109.504 6.91568 109.687 7.21548C109.861 7.48562 110.107 7.70215 110.397 7.84099ZM110.667 5.40662C110.774 5.31202 110.899 5.23943 111.033 5.19301C111.168 5.1466 111.311 5.12726 111.453 5.13612C111.663 5.12668 111.871 5.17648 112.054 5.27982C112.201 5.37059 112.319 5.50291 112.392 5.6602C112.467 5.8303 112.505 6.01497 112.502 6.20117C112.505 6.38826 112.464 6.57354 112.383 6.74214C112.307 6.89753 112.186 7.02692 112.037 7.11406C111.852 7.21205 111.645 7.25875 111.437 7.24929C111.238 7.25516 111.042 7.21464 110.862 7.13096C110.707 7.0557 110.582 6.93068 110.507 6.77594C110.423 6.59616 110.383 6.39936 110.388 6.20117C110.378 6.05669 110.397 5.91162 110.445 5.77494C110.493 5.63827 110.569 5.51291 110.667 5.40662Z" fill="#D9E9FF"/>
<path d="M123.135 18.0011H125.366L121.266 13.3803L125.282 9.37937H123.169L120.276 12.5576H119.652V5.23757L117.928 5.49114V18.0011H119.652V13.8593H119.68L123.135 18.0011Z" fill="#D9E9FF"/>
</svg>

<svg xmlns="http://www.w3.org/2000/svg" viewBox="0 0 130 24"><path fill="#1767CE" d="M0 0h130v24H0z"/><path fill="#fff" d="M6.004 18V6.001h3.937V18H6.004Zm9.294-10.09L17.562 18h-4.309L10.55 6.001h2.416a2.276 2.276 0 0 1 1.513.55c.42.345.71.826.82 1.36ZM18.154 18V6.001h3.937V18h-3.937Zm6.91-7.436a2.382 2.382 0 0 1-2.4-2.4 2.303 2.303 0 0 1 .323-1.2 2.411 2.411 0 0 1 3.278-.861c.355.209.652.506.861.861.215.363.326.778.322 1.2a2.4 2.4 0 0 1-1.183 2.079 2.303 2.303 0 0 1-1.2.321ZM28.057 18V6.001h3.937V18h-3.937Zm8.922-5.442c.011.012.096.15.253.414.158.265.364.603.617 1.014a327.152 327.152 0 0 1 1.597 2.62c.247.411.529.876.845 1.394h-4.326c-.27-.44-.516-.837-.735-1.191-.22-.355-.453-.738-.7-1.15-.249-.41-.494-.81-.737-1.2-.242-.389-.45-.73-.625-1.022-.175-.293-.296-.49-.363-.591a1.75 1.75 0 0 1-.287-.845c.017-.29.11-.57.27-.812.068-.113.191-.313.372-.6a182.106 182.106 0 0 0 1.37-2.23c.247-.412.48-.798.7-1.158l.735-1.2h4.326l-3.346 5.458a1.078 1.078 0 0 0-.17.542c.012.201.082.395.203.557h.001Z"/><path fill="#D9E9FF" d="M44.128 7.486h3.87v10.515h1.776V7.486h3.855V5.998h-9.501v1.488ZM60.485 10.47a3.068 3.068 0 0 0-1.243-.955 4.34 4.34 0 0 0-1.715-.322 4.203 4.203 0 0 0-1.725.339c-.495.216-.937.54-1.293.946a4.142 4.142 0 0 0-.812 1.463 6.11 6.11 0 0 0-.279 1.901 5.12 5.12 0 0 0 .499 2.359c.321.637.84 1.153 1.48 1.47.749.354 1.572.524 2.4.5a8.26 8.26 0 0 0 1.192-.077c.33-.047.655-.124.972-.228a6.29 6.29 0 0 0 .913-.389l.118-1.302c-.214.08-.431.158-.651.237-.22.079-.448.15-.685.211a5.109 5.109 0 0 1-.727.136 6.574 6.574 0 0 1-.743.042 5.333 5.333 0 0 1-1.32-.144 2.162 2.162 0 0 1-.937-.49 2.136 2.136 0 0 1-.575-.938 4.28 4.28 0 0 1-.184-1.116h6.11c.082-.7.051-1.407-.094-2.096a3.952 3.952 0 0 0-.701-1.547Zm-4.26.405c.396-.24.854-.36 1.318-.346.465-.023.923.11 1.302.38.337.269.577.64.684 1.057.085.308.126.627.124.947h-4.446c.031-.338.103-.67.215-.99.144-.428.426-.797.803-1.047ZM68.81 9.413a6.117 6.117 0 0 0-.785-.16 6.642 6.642 0 0 0-.914-.06 4.092 4.092 0 0 0-1.606.322c-.509.215-.971.528-1.36.921-.416.424-.735.93-.939 1.488a5.695 5.695 0 0 0-.338 2.037 5.29 5.29 0 0 0 .43 2.223c.266.6.705 1.106 1.26 1.454a3.73 3.73 0 0 0 2.012.515 4.876 4.876 0 0 0 1.809-.355c.343-.14.667-.324.963-.547v.463c.008.38-.047.76-.16 1.124a2.044 2.044 0 0 1-.49.811 2.018 2.018 0 0 1-.862.49c-.422.116-.857.17-1.294.161a9.4 9.4 0 0 1-1.04-.059 7.376 7.376 0 0 1-1.073-.203 8.215 8.215 0 0 1-1.065-.363l.186 1.487c.31.127.63.231.955.313.343.086.69.151 1.04.195.37.045.743.068 1.116.067a5.452 5.452 0 0 0 2.417-.482 3.387 3.387 0 0 0 1.48-1.335c.34-.6.512-1.28.498-1.97V9.193l-1.653.426c-.191-.08-.387-.15-.586-.206Zm.313 6.77a5.34 5.34 0 0 1-.65.322c-.198.081-.402.146-.61.194a2.74 2.74 0 0 1-.616.068 2.94 2.94 0 0 1-1.463-.33 1.98 1.98 0 0 1-.862-.997 4.493 4.493 0 0 1-.279-1.716 4.47 4.47 0 0 1 .195-1.378c.11-.367.3-.704.558-.989.25-.264.556-.47.895-.6a3.263 3.263 0 0 1 1.21-.211c.265 0 .531.022.794.068.269.047.534.112.794.194.083.026.17.06.254.092v5.154c-.074.044-.15.09-.22.13ZM80.297 9.548a3.327 3.327 0 0 0-1.622-.355c-.491.001-.979.078-1.446.229-.481.153-.94.372-1.36.65-.164.108-.32.226-.474.347V9.21l-1.724.254V18h1.724v-6.42c.167-.098.339-.187.516-.266.237-.105.48-.198.727-.279.237-.077.48-.137.726-.177.232-.039.467-.059.702-.06.276-.006.55.037.811.127.216.078.407.209.558.38.156.187.266.407.322.643.072.299.106.606.1.913v5.14h1.725v-5.495a4.686 4.686 0 0 0-.32-1.877 2.217 2.217 0 0 0-.965-1.082ZM89.477 14.113a2.545 2.545 0 0 0-.592-.465 4.586 4.586 0 0 0-.71-.33c-.18-.056-.358-.115-.533-.177a9.4 9.4 0 0 0-.524-.17 10.94 10.94 0 0 1-.507-.16 3.717 3.717 0 0 1-.448-.186 2.945 2.945 0 0 1-.397-.253 1.108 1.108 0 0 1-.287-.322.812.812 0 0 1-.11-.422.876.876 0 0 1 .118-.465.962.962 0 0 1 .355-.33c.177-.097.368-.165.567-.203.247-.047.5-.07.752-.067a5.527 5.527 0 0 1 .887.076c.175.028.35.065.524.11.175.044.352.095.533.152.167.051.33.113.49.186l.118-1.37a8.04 8.04 0 0 0-.633-.236 6.214 6.214 0 0 0-.635-.17 5.075 5.075 0 0 0-.633-.092 7.644 7.644 0 0 0-.617-.026 5.572 5.572 0 0 0-1.387.161 3.486 3.486 0 0 0-1.09.473c-.303.2-.55.474-.719.795a2.415 2.415 0 0 0-.253 1.141c-.005.285.04.568.135.837.08.225.2.434.355.617.15.172.324.323.516.448.2.13.412.241.634.33a14.685 14.685 0 0 0 .786.262 40.99 40.99 0 0 1 .744.236c.118.04.234.076.347.11.15.054.297.119.439.194.124.066.24.146.347.237a.866.866 0 0 1 .295.668.843.843 0 0 1-.279.668 1.62 1.62 0 0 1-.727.346c-.313.07-.633.104-.955.102a4.762 4.762 0 0 1-.6-.043 8.597 8.597 0 0 1-.693-.118c-.242-.051-.49-.113-.744-.186a14.75 14.75 0 0 1-.769-.245l.068 1.437c.292.101.56.183.803.245.242.062.473.116.693.16.212.045.426.073.642.085.209.012.42.017.634.017.472.003.942-.046 1.403-.144a3.627 3.627 0 0 0 1.15-.448c.32-.195.584-.468.77-.794.193-.358.289-.76.278-1.167a2.37 2.37 0 0 0-.144-.87 1.974 1.974 0 0 0-.397-.634ZM98.563 9.726a3.633 3.633 0 0 0-2.02-.533 5.149 5.149 0 0 0-1.25.161 5.425 5.425 0 0 0-1.505.638V9.21l-1.725.27v12.071h1.725v-3.785l.034.015c.312.13.638.224.971.28.394.064.793.095 1.192.092a4.226 4.226 0 0 0 2.173-.558 4.014 4.014 0 0 0 1.521-1.614c.399-.8.594-1.685.566-2.578a5.262 5.262 0 0 0-.43-2.198 3.398 3.398 0 0 0-1.252-1.48Zm-.448 5.655a2.326 2.326 0 0 1-.972 1.065c-.476.25-1.009.372-1.546.355a4.81 4.81 0 0 1-1.809-.345V11.12c.022-.01.045-.024.067-.034.248-.113.479-.209.693-.288a3.472 3.472 0 0 1 1.2-.22 3.128 3.128 0 0 1 1.505.33c.408.222.727.577.905 1.006a4.33 4.33 0 0 1 .296 1.725 4.031 4.031 0 0 1-.339 1.74ZM105.874 9.32a3.305 3.305 0 0 0-.895.388c-.289.18-.556.393-.795.634-.04.04-.079.085-.118.127v-1.26l-1.725.254V18h1.725v-6.386a4.38 4.38 0 0 1 .921-.494 5.84 5.84 0 0 1 .533-.177 3.583 3.583 0 0 1 1.183-.127l.203-1.59a3.222 3.222 0 0 0-1.032.094ZM115.798 16.936a.773.773 0 0 1-.659-.27 1.453 1.453 0 0 1-.186-.896l.034-3.483a4.072 4.072 0 0 0-.136-1.082 2.652 2.652 0 0 0-.405-.862 2.283 2.283 0 0 0-.702-.626 3.59 3.59 0 0 0-1.023-.388 6.004 6.004 0 0 0-1.335-.136c-.356 0-.712.023-1.065.068a7.318 7.318 0 0 0-.989.194 8.26 8.26 0 0 0-.888.296l-.203 1.437a10.05 10.05 0 0 1 1.539-.422c.232-.045.466-.076.701-.093a9.38 9.38 0 0 1 .685-.026c.345-.007.689.033 1.023.119.243.06.467.183.651.355.163.167.279.374.338.6.072.278.106.566.101.854l-.002.424-1.976.133a5.248 5.248 0 0 0-1.961.44 2.815 2.815 0 0 0-1.158.938c-.25.366-.382.8-.38 1.243-.003.416.098.825.296 1.192.207.376.518.684.896.887.461.24.976.356 1.496.338.487.011.971-.069 1.428-.237a3.289 3.289 0 0 0 1.065-.676c.117-.112.228-.23.333-.354.033.175.095.343.183.498.151.259.382.46.659.575.306.123.634.183.964.177.101 0 .2-.003.296-.008.094-.006.187-.02.279-.043l.245-.059a1.34 1.34 0 0 0 .194-.059l.186-1.133a1.472 1.472 0 0 1-.287.068c-.079.01-.158.016-.237.017Zm-2.815-.76c-.183.144-.381.269-.591.371a2.676 2.676 0 0 1-.659.22 3.75 3.75 0 0 1-.719.068 1.905 1.905 0 0 1-.803-.152 1.11 1.11 0 0 1-.499-.432 1.27 1.27 0 0 1-.169-.667 1.282 1.282 0 0 1 .22-.795 1.29 1.29 0 0 1 .71-.423 5.147 5.147 0 0 1 1.319-.135h1.48l-.008 1.678c-.085.097-.18.186-.281.266ZM110.397 7.841a2.29 2.29 0 0 0 1.023.22c.362.007.721-.071 1.048-.228.294-.144.543-.366.718-.643.181-.297.272-.64.262-.989a1.73 1.73 0 0 0-.558-1.352 2.053 2.053 0 0 0-1.437-.507 2.442 2.442 0 0 0-1.022.21 1.687 1.687 0 0 0-.736.635 1.87 1.87 0 0 0-.27 1.031c-.012.351.079.698.262.997.174.27.42.487.71.626Zm.27-2.434a1.094 1.094 0 0 1 .786-.27c.21-.01.418.04.601.143.147.09.265.223.338.38.075.17.113.355.11.541.003.187-.038.373-.119.541a.88.88 0 0 1-.346.372 1.168 1.168 0 0 1-.6.135 1.272 1.272 0 0 1-.575-.118.766.766 0 0 1-.355-.355 1.28 1.28 0 0 1-.119-.575 1.064 1.064 0 0 1 .279-.794ZM123.135 18.001h2.231l-4.1-4.62 4.016-4.002h-2.113l-2.893 3.179h-.624v-7.32l-1.724.253v12.51h1.724V13.86h.028l3.455 4.142Z"/></svg>
